img/icon-calendar.svg

<svg width="256" height="256" viewBox="0 0 256 256" fill="none" xmlns="http://www.w3.org/2000/svg">
<path d="M180.299 15.1562H144.229V26.5376H180.299V15.1562Z" fill="#FF892F"/>
<path d="M196.556 41.6417C202.4 41.6417 207.181 36.7871 207.181 30.8537V10.788C207.181 4.8546 202.4 0 196.556 0C190.713 0 185.932 4.8546 185.932 10.788V30.8537C185.932 36.7871 190.713 41.6417 196.556 41.6417Z" fill="#FF892F"/>
<path d="M111.717 15.1562H75.6465V26.5376H111.717V15.1562Z" fill="#FF892F"/>
<path d="M127.974 41.6417C133.818 41.6417 138.599 36.7871 138.599 30.8537V10.788C138.599 4.8546 133.818 0 127.974 0C122.131 0 117.35 4.8546 117.35 10.788V30.8537C117.35 36.7871 122.131 41.6417 127.974 41.6417Z" fill="#FF892F"/>
<path d="M59.4434 41.6417C65.2869 41.6417 70.068 36.7871 70.068 30.8537V10.788C70.068 4.8546 65.2869 0 59.4434 0C53.5999 0 48.8188 4.8546 48.8188 10.788V30.8537C48.7657 36.7871 53.5999 41.6417 59.4434 41.6417Z" fill="#FF892F"/>
<path d="M116.764 206.213H134.295V118.398H120.324C119.846 121.743 118.783 124.548 117.243 126.813C115.702 129.079 113.736 130.913 111.505 132.261C109.221 133.663 106.671 134.58 103.856 135.12C101.04 135.659 98.0651 135.875 95.0371 135.821V149.252H116.764V206.213V206.213Z" fill="#FF892F"/>
<path d="M67.1457 189.6C64.4365 192.081 61.0897 193.321 57.1586 193.321C54.6087 193.321 52.3775 192.89 50.5713 191.919C48.712 191.002 47.1715 189.761 45.9496 188.197C44.7278 186.633 43.7716 184.799 43.081 182.695C42.4435 180.538 42.0717 178.326 41.9654 176.007H25.2317C25.1254 181.131 25.8691 185.608 27.4097 189.546C28.9503 193.483 31.0752 196.828 33.8907 199.525C36.7062 202.222 40.1061 204.325 44.0903 205.728C48.0746 207.13 52.5369 207.885 57.3711 207.885C61.5678 207.885 65.6052 207.238 69.4832 205.997C73.3611 204.757 76.761 202.923 79.7359 200.495C82.7108 198.068 85.0482 195.048 86.8544 191.487C88.6074 187.874 89.5105 183.774 89.5105 179.189C89.5105 174.173 88.1293 169.858 85.4201 166.244C82.7108 162.63 78.9391 160.31 74.158 159.231V158.962C78.1953 157.775 81.2233 155.563 83.242 152.327C85.2607 149.091 86.27 145.315 86.27 141.054C86.27 137.116 85.4201 133.664 83.667 130.643C81.9139 127.622 79.6828 125.087 76.9204 122.984C74.158 120.88 71.0237 119.316 67.5707 118.291C64.1177 117.266 60.6647 116.727 57.2117 116.727C52.7494 116.727 48.712 117.482 45.0997 118.938C41.4873 120.394 38.353 122.498 35.75 125.141C33.147 127.838 31.1283 131.021 29.694 134.743C28.2597 138.464 27.4628 142.564 27.3035 147.095H43.9841C43.8778 142.564 44.9934 138.842 47.2777 135.875C49.562 132.909 52.9088 131.398 57.3711 131.398C60.5585 131.398 63.4271 132.423 65.8708 134.419C68.3676 136.415 69.5894 139.327 69.5894 143.049C69.5894 145.585 69.005 147.58 67.7832 149.091C66.6145 150.601 65.0739 151.734 63.2146 152.543C61.3553 153.352 59.3898 153.837 57.2117 153.999C55.0868 154.161 53.0681 154.161 51.1557 153.999V166.567C53.2806 166.567 55.5649 166.621 57.9023 166.729C60.2397 166.837 62.4178 167.322 64.3833 168.131C66.3489 168.941 67.9957 170.181 69.2707 171.961C70.5456 173.741 71.1831 176.276 71.1831 179.621C71.2362 183.774 69.855 187.118 67.1457 189.6Z" fill="#FF892F"/>
<path d="M212.811 15.1562V26.5376H244.791V68.503H11.209V26.5376H43.189V15.1562H0V255.999H256V15.1562H212.811ZM185.187 238.576C184.231 239.655 182.956 240.302 181.521 240.41C180.087 240.518 178.759 240.032 177.697 239.061C176.475 237.929 174.35 232.966 172.278 226.979C178.387 228.273 183.434 229.838 184.762 230.916C186.887 232.912 187.099 236.31 185.187 238.576ZM195.121 221.099C190.181 221.099 186.196 217.054 186.196 212.037C186.196 209.125 190.287 200.548 195.121 192.187C199.955 200.602 204.046 209.125 204.046 212.037C204.099 217 200.061 221.099 195.121 221.099ZM213.023 239.061C212.014 240.086 210.686 240.626 209.252 240.626C207.817 240.626 206.489 240.086 205.48 239.061C204.471 238.036 203.939 236.688 203.939 235.232C203.939 233.775 204.471 232.427 205.48 231.402C206.702 230.215 211.642 228.381 217.698 226.655C216.051 232.804 214.192 237.821 213.023 239.061ZM244.791 244.563H222.851C226.782 238.09 229.651 225.738 230.767 220.128L232.52 211.66L224.179 213.44C221.948 213.925 218.548 214.68 214.936 215.705C215.148 214.519 215.255 213.278 215.255 211.983C215.255 202.868 203.461 183.881 199.849 178.271L195.174 171.043L190.499 178.271C190.34 178.487 186.728 184.15 183.009 190.893C175.89 203.946 175.04 209.179 175.04 211.983C175.04 213.386 175.2 214.734 175.465 216.029C171.375 215.112 167.497 214.519 165.053 214.141L156.66 212.9L158.891 221.207C160.325 226.547 163.778 238.198 167.922 244.509H11.209V79.8843H244.791V244.563Z" fill="#FF892F"/>
<path d="M232.519 120.664H147.31V132.045H232.519V120.664Z" fill="#FF892F"/>
<path d="M232.519 96.8765H147.31V108.258H232.519V96.8765Z" fill="#FF892F"/>
<path d="M232.519 145.315H147.31V156.697H232.519V145.315Z" fill="#FF892F"/>
<path d="M178.758 169.911H147.841V181.292H178.758V169.911Z" fill="#FF892F"/>
</svg>

<svg width="256" height="256" fill="none" xmlns="http://www.w3.org/2000/svg"><path d="M180.299 15.156h-36.07v11.382h36.07V15.156zM196.556 41.642c5.844 0 10.625-4.855 10.625-10.788V10.788C207.181 4.855 202.4 0 196.556 0c-5.843 0-10.624 4.855-10.624 10.788v20.066c0 5.933 4.781 10.788 10.624 10.788zM111.717 15.156h-36.07v11.382h36.07V15.156zM127.974 41.642c5.844 0 10.625-4.855 10.625-10.788V10.788C138.599 4.855 133.818 0 127.974 0c-5.843 0-10.624 4.855-10.624 10.788v20.066c0 5.933 4.781 10.788 10.624 10.788zM59.443 41.642c5.844 0 10.625-4.855 10.625-10.788V10.788C70.068 4.855 65.287 0 59.443 0 53.6 0 48.82 4.855 48.82 10.788v20.066c-.053 5.933 4.78 10.788 10.624 10.788zM116.764 206.213h17.531v-87.815h-13.971c-.478 3.345-1.541 6.15-3.081 8.415a18.504 18.504 0 01-5.738 5.448c-2.284 1.402-4.834 2.319-7.649 2.859-2.816.539-5.79.755-8.819.701v13.431h21.727v56.961zM67.146 189.6c-2.71 2.481-6.056 3.721-9.987 3.721-2.55 0-4.782-.431-6.588-1.402-1.859-.917-3.4-2.158-4.621-3.722-1.222-1.564-2.178-3.398-2.869-5.502a27.933 27.933 0 01-1.116-6.688H25.232c-.107 5.124.637 9.601 2.178 13.539 1.54 3.937 3.665 7.282 6.48 9.979 2.816 2.697 6.216 4.8 10.2 6.203 3.985 1.402 8.447 2.157 13.281 2.157 4.197 0 8.234-.647 12.112-1.888 3.878-1.24 7.278-3.074 10.253-5.502 2.975-2.427 5.312-5.447 7.118-9.008 1.753-3.613 2.656-7.713 2.656-12.298 0-5.016-1.38-9.331-4.09-12.945-2.71-3.614-6.48-5.934-11.262-7.013v-.269c4.037-1.187 7.065-3.399 9.084-6.635 2.019-3.236 3.028-7.012 3.028-11.273 0-3.938-.85-7.39-2.603-10.411a25.711 25.711 0 00-6.747-7.659c-2.762-2.104-5.896-3.668-9.35-4.693-3.452-1.025-6.905-1.564-10.358-1.564-4.463 0-8.5.755-12.112 2.211-3.613 1.456-6.747 3.56-9.35 6.203-2.603 2.697-4.622 5.88-6.056 9.602-1.434 3.721-2.231 7.821-2.39 12.352h16.68c-.106-4.531 1.01-8.253 3.294-11.22 2.284-2.966 5.63-4.477 10.093-4.477 3.188 0 6.056 1.025 8.5 3.021 2.497 1.996 3.718 4.908 3.718 8.63 0 2.536-.584 4.531-1.806 6.042-1.168 1.51-2.71 2.643-4.568 3.452-1.86.809-3.825 1.294-6.003 1.456a37.766 37.766 0 01-6.056 0v12.568c2.125 0 4.409.054 6.746.162 2.338.108 4.516.593 6.481 1.402 1.966.81 3.613 2.05 4.888 3.83 1.275 1.78 1.912 4.315 1.912 7.66.053 4.153-1.328 7.497-4.037 9.979z" fill="#FF892F"/><path d="M212.811 15.156v11.382h31.98v41.965H11.209V26.538h31.98V15.156H0V256h256V15.156h-43.189zm-27.624 223.42c-.956 1.079-2.231 1.726-3.666 1.834-1.434.108-2.762-.378-3.824-1.349-1.222-1.132-3.347-6.095-5.419-12.082 6.109 1.294 11.156 2.859 12.484 3.937 2.125 1.996 2.337 5.394.425 7.66zm9.934-17.477c-4.94 0-8.925-4.045-8.925-9.062 0-2.912 4.091-11.489 8.925-19.85 4.834 8.415 8.925 16.938 8.925 19.85.053 4.963-3.985 9.062-8.925 9.062zm17.902 17.962c-1.009 1.025-2.337 1.565-3.771 1.565-1.435 0-2.763-.54-3.772-1.565s-1.541-2.373-1.541-3.829c0-1.457.532-2.805 1.541-3.83 1.222-1.187 6.162-3.021 12.218-4.747-1.647 6.149-3.506 11.166-4.675 12.406zm31.768 5.502h-21.94c3.931-6.473 6.8-18.825 7.916-24.435l1.753-8.468-8.341 1.78c-2.231.485-5.631 1.24-9.243 2.265.212-1.186.319-2.427.319-3.722 0-9.115-11.794-28.102-15.406-33.712l-4.675-7.228-4.675 7.228c-.159.216-3.771 5.879-7.49 12.622-7.119 13.053-7.969 18.286-7.969 21.09 0 1.403.16 2.751.425 4.046-4.09-.917-7.968-1.51-10.412-1.888l-8.393-1.241 2.231 8.307c1.434 5.34 4.887 16.991 9.031 23.302H11.209V79.884h233.582v164.679z" fill="#FF892F"/><path d="M232.519 120.664H147.31v11.381h85.209v-11.381zM232.519 96.876H147.31v11.382h85.209V96.876zM232.519 145.315H147.31v11.382h85.209v-11.382zM178.758 169.911h-30.917v11.381h30.917v-11.381z" fill="#FF892F"/></svg>
